icon/fa/bridge-circle-exclamation.svg

<svg xmlns="http://www.w3.org/2000/svg" viewBox="0 0 640 512"><!--! Font Awesome Free 6.1.2 by @fontawesome - https://fontawesome.com License - https://fontawesome.com/license/free (Icons: CC BY 4.0, Fonts: SIL OFL 1.1, Code: MIT License) Copyright 2022 Fonticons, Inc.--><path d="M576 32c17.7 0 32 14.33 32 32s-14.3 32-32 32h-40v64h72v72.2c-30.4-25.1-69.5-40.2-112-40.2-69.1 0-128.9 39.8-157.7 97.7-5.9-1.1-12-1.7-18.3-1.7-53.9 0-96 42.1-96 96v64c0 17.7-14.3 32-32 32h-32c-17.7 0-32-14.3-32-32v-64c0-53.9-42.98-96-96-96V160h72V96H64c-17.67 0-32-14.33-32-32s14.33-32 32-32h512zm-88 64h-80v64h80V96zm-208 0v64h80V96h-80zm-48 0h-80v64h80V96zm120 272c0-79.5 64.5-144 144-144s144 64.5 144 144-64.5 144-144 144-144-64.5-144-144zm144 96c13.3 0 24-10.7 24-24s-10.7-24-24-24-24 10.7-24 24 10.7 24 24 24zm-16.9-176v80c0 8.8 8.1 16 16 16 9.7 0 16-7.2 16-16v-80c0-8.8-6.3-16-16-16-7.9 0-16 7.2-16 16z"/></svg>

<svg xmlns="http://www.w3.org/2000/svg" viewBox="0 0 640 512" height="1em" width="1em">
<!--! Font Awesome Free 6.1.2 by @fontawesome - https://fontawesome.com License - https://fontawesome.com/license/free (Icons: CC BY 4.0, Fonts: SIL OFL 1.1, Code: MIT License) Copyright 2022 Fonticons, Inc.-->
  <path d="M576 32C593.7 32 608 46.33 608 64C608 81.67 593.7 96 576 96H536V160H608V232.2C577.6 207.1 538.5 192 496 192C426.9 192 367.1 231.8 338.3 289.7C332.4 288.6 326.3 288 320 288C266.1 288 224 330.1 224 384V448C224 465.7 209.7 480 192 480H160C142.3 480 128 465.7 128 448V384C128 330.1 85.02 288 32 288V160H104V96H64C46.33 96 32 81.67 32 64C32 46.33 46.33 32 64 32H576zM488 96H408V160H488V96zM280 96V160H360V96H280zM232 96H152V160H232V96zM352 368C352 288.5 416.5 224 496 224C575.5 224 640 288.5 640 368C640 447.5 575.5 512 496 512C416.5 512 352 447.5 352 368zM496 464C509.3 464 520 453.3 520 440C520 426.7 509.3 416 496 416C482.7 416 472 426.7 472 440C472 453.3 482.7 464 496 464zM479.1 288V368C479.1 376.8 487.2 384 495.1 384C504.8 384 511.1 376.8 511.1 368V288C511.1 279.2 504.8 272 495.1 272C487.2 272 479.1 279.2 479.1 288z"/>
</svg>
